!!!OTL: 1716. Jgel und Leinweber. / A. Melodie aus einem Lautensatz.
!!!ARE: Europa, Mitteleuropa, Deutschland
!!!SCT: E1716
!!!TXL: @@DE
!!!YEM: Copyright 1995, estate of Helmut Schaffrath.
**kern	**text
*ICvox	*
*M4/4	*
*met(c)	*
*k[f#]	*
*G:	*
!LO:TX:a:t=P. Fabricius Liederb. 1603 Nr. 94.	!
{4g	Ein
=1	=1
4g	Schneider
4g	.
4dd	und
4dd	ein
=2	=2
4g	Ʒie-
4f#	-gen-
4g}	-bock,
{4g	ein
=3	=3
4a	Lein-
4b	-we-
4cc	-ber
4a	und
=4	=4
4b	J-
4b	-gel-
4a}	-kopf,
{4a	ein
=5	=5
4g	Kürſch-
4a	-ner
4b	und
4b	ein
=6	=6
2e	Ka-
2a}	-tʒe.
=7||	=7||
{4g	Nun
8f#L	wol-
8eJ	.
4d;	-an!
4a	Die
=8	=8
4a	tanʒ-
4e	-ten_auf
4a}	ei-
{4g	-nem
=9	=9
2a	Pla-
2b/	-tʒe.
=10	=10
4a	So,
4g	mein
4a	J-
4g	-gel,
=11	=11
2.dd	ſo!
4r}	.
=12	=12
{4b/	So,
8aL	mein
8bJ	.
4a	J-
8eL	-gel,
8f#J	.
=13	=13
2.g;}	ſo!
==	==
!!!AGN: Spott - Lied auf die Leineweber
!!!ONB: ESAC (Essen Associative Code) Database: ERK3
!!!AMT: simple quadruple
!!!AIN: vox
!!!EED: Helmut Schaffrath
!!!EEV: 1.0
!!!GTL: Scherz-, Spiel- und Spottlieder.
!!!URL-scan: https://rosdok.uni-rostock.de/mcrviewer/recordIdentifier/rosdok_ppn745177999/iview2/phys_0515.iview2?x=-449.8344612962892&y=1318.8701439222787&scale=0.47549036216460333&rotation=0&layout=singlePageLayout
!!!ENC: Anna Maria Matuszewska
!!!EEV: 2025/08/01
*-	*-
